my_site/img/footer/inst.svg

<svg width="24" height="24" viewBox="0 0 24 24" fill="none" xmlns="http://www.w3.org/2000/svg">
<path d="M12.0016 5.84744C8.59659 5.84744 5.84859 8.59544 5.84859 12.0004C5.84859 15.4054 8.59659 18.1534 12.0016 18.1534C15.4066 18.1534 18.1546 15.4054 18.1546 12.0004C18.1546 8.59544 15.4066 5.84744 12.0016 5.84744ZM12.0016 15.9994C9.79959 15.9994 8.00259 14.2024 8.00259 12.0004C8.00259 9.79844 9.79959 8.00144 12.0016 8.00144C14.2036 8.00144 16.0006 9.79844 16.0006 12.0004C16.0006 14.2024 14.2036 15.9994 12.0016 15.9994ZM18.4066 4.16144C17.6116 4.16144 16.9696 4.80344 16.9696 5.59844C16.9696 6.39344 17.6116 7.03544 18.4066 7.03544C19.2016 7.03544 19.8436 6.39644 19.8436 5.59844C19.8438 5.40966 19.8068 5.22269 19.7347 5.04824C19.6625 4.87379 19.5567 4.71528 19.4232 4.5818C19.2897 4.44831 19.1312 4.34247 18.9568 4.27034C18.7823 4.19821 18.5954 4.1612 18.4066 4.16144ZM23.9956 12.0004C23.9956 10.3444 24.0106 8.70344 23.9176 7.05044C23.8246 5.13044 23.3866 3.42644 21.9826 2.02244C20.5756 0.615437 18.8746 0.180437 16.9546 0.0874372C15.2986 -0.00556279 13.6576 0.00943725 12.0046 0.00943725C10.3486 0.00943725 8.70759 -0.00556279 7.05459 0.0874372C5.13459 0.180437 3.43059 0.618437 2.02659 2.02244C0.619588 3.42944 0.184588 5.13044 0.0915876 7.05044C-0.0014124 8.70644 0.0135876 10.3474 0.0135876 12.0004C0.0135876 13.6534 -0.0014124 15.2974 0.0915876 16.9504C0.184588 18.8704 0.622588 20.5744 2.02659 21.9784C3.43359 23.3854 5.13459 23.8204 7.05459 23.9134C8.71059 24.0064 10.3516 23.9914 12.0046 23.9914C13.6606 23.9914 15.3016 24.0064 16.9546 23.9134C18.8746 23.8204 20.5786 23.3824 21.9826 21.9784C23.3896 20.5714 23.8246 18.8704 23.9176 16.9504C24.0136 15.2974 23.9956 13.6564 23.9956 12.0004ZM21.3556 19.0744C21.1366 19.6204 20.8726 20.0284 20.4496 20.4484C20.0266 20.8714 19.6216 21.1354 19.0756 21.3544C17.4976 21.9814 13.7506 21.8404 12.0016 21.8404C10.2526 21.8404 6.50259 21.9814 4.92459 21.3574C4.37859 21.1384 3.97059 20.8744 3.55059 20.4514C3.12759 20.0284 2.86359 19.6234 2.64459 19.0774C2.02059 17.4964 2.16159 13.7494 2.16159 12.0004C2.16159 10.2514 2.02059 6.50144 2.64459 4.92344C2.86359 4.37744 3.12759 3.96944 3.55059 3.54944C3.97359 3.12944 4.37859 2.86244 4.92459 2.64344C6.50259 2.01944 10.2526 2.16044 12.0016 2.16044C13.7506 2.16044 17.5006 2.01944 19.0786 2.64344C19.6246 2.86244 20.0326 3.12644 20.4526 3.54944C20.8756 3.97244 21.1396 4.37744 21.3586 4.92344C21.9826 6.50144 21.8416 10.2514 21.8416 12.0004C21.8416 13.7494 21.9826 17.4964 21.3556 19.0744Z" fill="#E61F5A"/>
</svg>

<svg width="24" height="24" fill="none" xmlns="http://www.w3.org/2000/svg"><path d="M12.002 5.847A6.144 6.144 0 005.849 12a6.144 6.144 0 006.153 6.153A6.144 6.144 0 0018.155 12a6.144 6.144 0 00-6.153-6.153zm0 10.152a4.007 4.007 0 01-4-3.999 4.007 4.007 0 014-3.999 4.007 4.007 0 013.999 4 4.007 4.007 0 01-4 3.998zm6.405-11.838c-.795 0-1.437.642-1.437 1.437s.642 1.437 1.437 1.437a1.433 1.433 0 001.328-1.987 1.436 1.436 0 00-1.328-.887zm5.589 7.84c0-1.657.015-3.298-.078-4.95-.093-1.92-.531-3.625-1.935-5.029C20.576.615 18.875.18 16.955.087 15.299-.006 13.658.01 12.005.01c-1.656 0-3.297-.015-4.95.078-1.92.092-3.625.53-5.028 1.934C.62 3.43.185 5.13.092 7.05-.001 8.706.014 10.347.014 12s-.015 3.297.078 4.95c.093 1.92.53 3.624 1.935 5.028 1.407 1.407 3.108 1.842 5.028 1.935 1.656.093 3.297.078 4.95.078 1.656 0 3.297.015 4.95-.078 1.92-.093 3.624-.53 5.028-1.935 1.407-1.407 1.842-3.108 1.935-5.028.096-1.653.078-3.294.078-4.95zm-2.64 7.073a3.812 3.812 0 01-.906 1.374 3.838 3.838 0 01-1.374.906c-1.578.627-5.325.486-7.074.486-1.75 0-5.5.141-7.077-.483a3.812 3.812 0 01-1.374-.906 3.838 3.838 0 01-.906-1.374c-.624-1.58-.483-5.328-.483-7.077 0-1.749-.141-5.499.483-7.077.219-.546.483-.954.906-1.374.423-.42.828-.687 1.374-.906 1.578-.624 5.328-.483 7.077-.483 1.749 0 5.499-.14 7.077.483.546.22.954.483 1.374.906.423.423.687.828.906 1.374.624 1.578.483 5.328.483 7.077 0 1.75.14 5.496-.486 7.074z" fill="#E61F5A"/></svg>
